!!!!SEGMENT: pl-sa--155-a-iv-5--003_luna-georgius--vesperae-in-d-beatus-vir.krn
!!!cenid: 17xx:522
!!!COM: Luna, Georgius
!!!COM-rismid: pe41010079
!!!CDT:
!!!CNT:
!!!OPR: Vesperae in D
!!!OTL: Beatus vir
!!!OMV: 003
!!!PDT:
!!!AGN: Sacred; Vespers
!!!SMS-siglum: PL-SA
!!!SMS-shelfmark: 155/A IV 5
!!!SMS-shelfwork: 001-003 M
!!!SMS-variant:
!!!SMS-altvar:
!!!NIFC-rismid: 1001070698
!!!URL-scan: http://bc.bdsandomierz.pl/dlibra/publication/1541/edition/1509/content
!!!ONB-nifc: UWAGA: części Vesperae: Dixit Dominus, Confitebor, Beatus vir, Laudate pueri, Laudate Dominum, Magnificat
!!!key:
**kern	**dynam	**kern	**dynam	**kern	**kern	**text	**kern	**text
*part5	*part5	*part4	*part4	*part3	*part2	*part2	*part1	*part1
*	*	*group2	*	*group2	*group1	*	*group1	*
*staff5	*	*staff4	*	*staff3	*staff2	*staff2	*staff1	*staff1
*Iempty	*	*Ivioln	*	*Ivioln	*Itenor	*	*Ivox	*
*I"Fundamento	*	*I"Violino Secundo	*	*I"Violino Primo	*I"Tenor	*	*I"Canto	*
*I'bc	*	*I'vl II	*	*I'vl I	*I'T	*	*I'C	*
*clefF4	*	*clefG2	*	*clefG2	*clefC4	*	*clefC1	*
*k[f#c#]	*	*k[f#c#]	*	*k[f#c#]	*k[f#c#]	*	*k[f#c#]	*
*D:	*	*D:	*	*D:	*D:	*	*D:	*
*M2/4	*	*M2/4	*	*M2/4	*M2/4	*	*M2/4	*
!	!	!	!	!LO:TX:a:t=P:problem:brak przedtaktu	!LO:TX:a:t=P:problem:przy kluczu krzyżyki jeden nad drugim	!	!LO:TX:a:t=P:problem:przy kluczu krzyżyk cis oktawę wyżej	!
!LO:TX:a:t=Solo	!	!	!	!LO:TX:a:t=Allo&colon; no molto	!LO:TX:a:Bi:t=Allo n&colon; molto	!	!	!
8r	.	8r	.	8r	8A/	Be-	8r	.
=1	=1	=1	=1	=1	=1	=1	=1	=1
!	!	!LO:N:vis=00	!	!LO:N:vis=00	!	!	!LO:N:vis=00	!
8r	.	0r	.	0r	4d\	-a-	0r	.
8d\L	.	.	.	.	.	.	.	.
8F#\	.	.	.	.	4f#\	-tus	.	.
8G\J	.	.	.	.	.	.	.	.
=2	=2	=2	=2	=2	=2	=2	=2	=2
8A\L	.	.	.	.	4e\	vir	.	.
8B\	.	.	.	.	.	.	.	.
8c#\	.	.	.	.	8r	.	.	.
8A\J	.	.	.	.	8g\	qui	.	.
=3	=3	=3	=3	=3	=3	=3	=3	=3
8d\L	.	.	.	.	8f#\L	ti-	.	.
8d\	.	.	.	.	16e\L	.	.	.
.	.	.	.	.	16f#\JJ	.	.	.
8B\	.	.	.	.	8g\	.	.	.
8G\J	.	.	.	.	8e\	-met	.	.
=4	=4	=4	=4	=4	=4	=4	=4	=4
.	.	.	.	.	8qqd/	.	.	.
8A\L	.	.	.	.	16c#\	Do-	.	.
.	.	.	.	.	16c#\	-mi-	.	.
8D\J	.	.	.	.	8d\	-num	.	.
8F#\L	.	.	.	.	4r	.	.	.
8D\J	.	.	.	.	.	.	.	.
!	!	!	!	!	!LO:LB:g=original	!	!	!
=5	=5	=5	=5	=5	=5	=5	=5	=5
!	!	!LO:N:vis=00	!	!LO:N:vis=00	!	!	!LO:N:vis=00	!
8G\L	.	0r	.	0r	16B\KL	in	0r	.
.	.	.	.	.	8.G\J	.	.	.
8G\	.	.	.	.	.	.	.	.
8G\	.	.	.	.	16d\KL	man-	.	.
.	.	.	.	.	8.B\J	.	.	.
8G\J	.	.	.	.	.	.	.	.
=6	=6	=6	=6	=6	=6	=6	=6	=6
8r	.	.	.	.	16A/LL	-da-	.	.
.	.	.	.	.	16F#/JJ	.	.	.
8D\L	.	.	.	.	8r	.	.	.
.	.	.	.	.	8qqE	.	.	.
8F#\	.	.	.	.	4D/	-tis	.	.
8D\J	.	.	.	.	.	.	.	.
=7	=7	=7	=7	=7	=7	=7	=7	=7
8G\L	.	.	.	.	16B\KL	e-	.	.
.	.	.	.	.	8.G\J	.	.	.
8G\	.	.	.	.	.	.	.	.
8G\	.	.	.	.	16d\KL	-ius	.	.
.	.	.	.	.	8.B\J	.	.	.
8G\J	.	.	.	.	.	.	.	.
=8	=8	=8	=8	=8	=8	=8	=8	=8
8r	.	.	.	.	16A\LL	vo-	.	.
.	.	.	.	.	16F#\JJ	.	.	.
8D\L	.	.	.	.	4.D/	-let	.	.
8F#\	.	.	.	.	.	.	.	.
8D\J	.	.	.	.	.	.	.	.
=9	=9	=9	=9	=9	=9	=9	=9	=9
!	!	!LO:N:vis=0	!	!LO:N:vis=0	!	!	!LO:N:vis=0	!
4A\	.	1r	.	1r	8.A\L	vo-	1r	.
.	.	.	.	.	16B\Jk	.	.	.
16A\LL	.	.	.	.	16c#\LL	.	.	.
16B\	.	.	.	.	16d\	.	.	.
16c#\	.	.	.	.	16e\	.	.	.
16d\JJ	.	.	.	.	16f#\JJ	.	.	.
=10	=10	=10	=10	=10	=10	=10	=10	=10
8e\L	.	.	.	.	8g\L	.	.	.
8c#\	.	.	.	.	16f#\L	.	.	.
.	.	.	.	.	16e\JJ	.	.	.
8d\	.	.	.	.	8f#\	.	.	.
8D\J	.	.	.	.	8d\	-let	.	.
=11	=11	=11	=11	=11	=11	=11	=11	=11
!LO:TX:a:t=P:problem:mixed beam	!	!	!	!	!	!	!	!
8G\L	.	2r	.	2r	4B\	ni-	2r	.
8E\	.	.	.	.	.	.	.	.
8A\	.	.	.	.	4c#\	.	.	.
8AA/J	.	.	.	.	.	.	.	.
=12	=12	=12	=12	=12	=12	=12	=12	=12
4D\	.	4r	.	4r	4d\	-mis	4r	.
4r	.	8r	.	8r	8r	.	8r	.
.	.	8a/	.	8a/	8A/	Po-	8a\	Po-
!LO:LB:g=original	!	!	!	!	!LO:LB:g=original	!	!	!
=13	=13	=13	=13	=13	=13	=13	=13	=13
!LO:TX:a:t=Tutti	!	!	!	!	!	!	!	!
8r	.	4dd\	.	4dd\	4F#/	-tens	8dd\	-tens
8d\L	.	.	.	.	.	.	8dd\	in
8F#\	.	4ff#\	.	4ff#\	8A\L	in	4ff#\	ter-
8G\J	.	.	.	.	8B\J	.	.	.
=14	=14	=14	=14	=14	=14	=14	=14	=14
8A\L	.	4ee\	.	4ee\	8c#\	ter-	4ee\	-ra
8B\	.	.	.	.	8c#\	-ra	.	.
8c#\	.	8r	.	8r	8r	.	8r	.
8A\J	.	8gg\	.	8gg\	8c#\	e-	8ee\	e-
=15	=15	=15	=15	=15	=15	=15	=15	=15
!	!	!LO:TX:a:t=P:problem:niejednoznaczny zapis ozdobnika [przyjęto tryl]:global	!	!LO:TX:a:t=P:problem:niejednoznaczny zapis ozdobnika [przyjęto tryl]:global	!	!	!	!
8d\L	.	8.ff#t\L	.	8.ff#t\L	4A\	-rit	8ff#\	.
8d\	.	.	.	.	.	.	16ee\LL	-rit
.	.	(32ee\LL	.	32ee\LL	.	.	16ff#\JJ	.
.	.	32ff#\JJJ)	.	32ff#\JJJ	.	.	.	.
8B\	.	8gg\L	.	8gg\L	8B\	se-	8gg\	se-
8G\J	.	8ee\J	.	8ee\J	8B\	-men	8ee\	-men
=16	=16	=16	=16	=16	=16	=16	=16	=16
8A\L	.	8cc#\L	.	8cc#\L	8E/	e-	8cc#\	e-
8D\	.	8dd\J	.	8dd\J	8F#/	-ius	8dd\	-ius
8F#\	.	16d/LL	.	16d/LL	4r	.	4r	.
.	.	32e/L	.	32e/L	.	.	.	.
.	.	32f#/	.	32f#/	.	.	.	.
8E\J	.	32g/	.	32g/	.	.	.	.
.	.	32a/	.	32a/	.	.	.	.
.	.	32b/	.	32b/	.	.	.	.
.	.	32cc#/JJJ	.	32cc#/JJJ	.	.	.	.
!	!	!	!	!	!	!	!LO:LB:g=original	!
=17	=17	=17	=17	=17	=17	=17	=17	=17
!	!	!LO:TX:a:t=P:problem:mixed beam	!	!	!	!	!	!
8D\L	.	8dd\L	.	8dd\	4F#/	ge-	8dd\	ge-
!	!	!	!	!	!	!	!LO:N:vis=4	!
8D\	.	8f#/	.	4.ccn\	.	.	4.ccn\	-ne-
8E\	.	8g/	.	.	8G/L	-ne-	.	.
8F#\J	.	8a/J	.	.	8A/J	.	.	.
=18	=18	=18	=18	=18	=18	=18	=18	=18
8G\L	.	8b\L	.	16b\LL	8B\L	-ra-	8b\	-ra-
.	.	.	.	16g\	.	.	.	.
8A\	.	8cc#\	.	16a\	8c#\J	.	8a\	-ti-
.	.	.	.	16f#\JJ	.	.	.	.
8B\	.	8dd\	.	4g/	8d\L	-tio	4g\	-o
8G\J	.	8b\J	.	.	8B\J	.	.	.
=19	=19	=19	=19	=19	=19	=19	=19	=19
8E\L	.	8g#X/L	.	8ee\	4G#X/	rec-	8ee\	rec-
8E\	.	8g#/	.	4.dd\	.	.	4.dd\	.
8F#\	.	8a/	.	.	8A\L	.	.	.
8G#X\J	.	8b/J	.	.	8B\J	.	.	.
=20	=20	=20	=20	=20	=20	=20	=20	=20
8A\L	.	8cc#\L	.	16cc#X\LL	8c#\L	-to-	(8cc#X\L	-to-
.	.	.	.	16a\	.	.	.	.
8B\	.	8dd\	.	16b\	8d\J	.	8b\J)	.
.	.	.	.	16g#X\JJ	.	.	.	.
8c#\	.	8ee\	.	16a\LL	8e\L	-rum	4a\	-rum
.	.	.	.	32b\L	.	.	.	.
.	.	.	.	32cc#\	.	.	.	.
8A\J	.	8cc#\J	.	32dd\	8c#\J	.	.	.
.	.	.	.	32ee\	.	.	.	.
.	.	.	.	32ff#\	.	.	.	.
.	.	.	.	32ggn\JJJ	.	.	.	.
!	!	!	!	!LO:LB:g=original	!LO:LB:g=original	!	!	!
=21	=21	=21	=21	=21	=21	=21	=21	=21
8A\L	.	8cc#\L	.	8aa\	4c#\	be-	8ee\	be-
8A\	.	8cc#\	.	4.ggn\	.	.	4ee\	-ne-
8B\	.	8dd\	.	.	8c#\	-ne-	.	.
8c#\J	.	8ee\J	.	.	8c#\	-di-	8ee\	-di-
=22	=22	=22	=22	=22	=22	=22	=22	=22
8d\L	.	8dd\L	.	8ff#\L	8d\	-ce-	8ff#\	-ce-
8A\J	.	8cc#\	.	8ee\J	8c#\	-tur	8ee\	-tur
!LO:TX:a:t=P:problem:mixed beam	!	!	!	!	!	!	!	!
8D/L	.	8a\	.	16ff#\KL	4d\	be-	4ff#\	be-
.	.	.	.	8gg#X\	.	.	.	.
8d\J	.	8a\J	.	.	.	.	.	.
.	.	.	.	16aa\Jk	.	.	.	.
!	!	!LO:LB:g=original	!	!	!	!	!LO:LB:g=original	!
=23	=23	=23	=23	=23	=23	=23	=23	=23
!LO:TX:a:t=P:problem:mixed beam	!	!	!	!	!	!	!	!
8c#\L	.	8a/L	.	16ee\KL	8c#\	-ne-	8ee\	-ne-
.	.	.	.	8gg#X\	.	.	.	.
8C#/	.	8a/	.	.	8c#\	-di-	8ee\	-di-
.	.	.	.	16aa\Jk	.	.	.	.
8BB/	.	8g#X/	.	16dd\KL	4B\	-cet(ur)-	4dd\	-ce-
.	.	.	.	8gg#X\	.	.	.	.
8B\J	.	8g#/J	.	.	.	.	.	.
.	.	.	.	16aa\Jk	.	.	.	.
=24	=24	=24	=24	=24	=24	=24	=24	=24
8A\L	.	8a\L	.	16cc#\KL	4A\	be-	4cc#\	-tur
.	.	.	.	8gg#X\	.	.	.	.
8c#\	.	8ee\	.	.	.	.	.	.
.	.	.	.	16aa\Jk	.	.	.	.
8d\	.	8a\	.	4ff#\	4d\	-ne	4ff#\	be-
8G#X\J	.	8dd\J	.	.	.	.	.	.
!LO:LB:g=original	!	!	!	!	!	!	!	!
=25	=25	=25	=25	=25	=25	=25	=25	=25
8A\L	.	8a/L	.	16ee\LL	8c#\	-di-	8ee\	-ne-
.	.	.	.	16cc#\	.	.	.	.
8d\	.	8a/	.	16ff#\	8B\	-ce-	8dd\	-di-
.	.	.	.	16dd\JJ	.	.	.	.
8e\	.	8a/	.	16cc#\LL	8A/L	.	(8cc#\L	-ce-
.	.	.	.	16b\	.	.	.	.
!	!	!	!	!	!LO:SIC:s=8G#:v	!	!	!
8E\J	.	8g#X/J	.	16a\	8G/J	.	8b\J)	.
.	.	.	.	16g#X\JJ	.	.	.	.
=26	=26	=26	=26	=26	=26	=26	=26	=26
!	!	!	!	!	!LO:SIC:s=8A:v	!	!	!
4A\	.	8a/L	.	8a/L	4F#/	-tur	4a\	-tur
.	.	8e/J	.	8e/J	.	.	.	.
4r	.	4A/	.	4A/	4r	.	8r	.
.	.	.	.	.	.	.	(8e/	glo-
=27	=27	=27	=27	=27	=27	=27	=27	=27
!LO:TX:a:t=Solo	!	!LO:N:vis=00	!	!LO:N:vis=00	!LO:N:vis=00	!	!	!
8r	.	0r	.	0r	0r	.	4a\)	.
8A\L	.	.	.	.	.	.	.	.
8C#\	.	.	.	.	.	.	4cc#\	-ri-
8D\J	.	.	.	.	.	.	.	.
=28	=28	=28	=28	=28	=28	=28	=28	=28
.	.	.	.	.	.	.	8qqcc#/	.
8E\L	.	.	.	.	.	.	4b\	-a
8F#\	.	.	.	.	.	.	.	.
8G#X\	.	.	.	.	.	.	8r	.
8E\J	.	.	.	.	.	.	(8ee\	et
=29	=29	=29	=29	=29	=29	=29	=29	=29
!	!	!	!	!	!	!	!LO:TX:a:t=P:problem:łuk nad nutą	!
8A\L	.	.	.	.	.	.	8cc#\L)	.
8A\	.	.	.	.	.	.	16b\L	.
.	.	.	.	.	.	.	16cc#\JJ	.
8F#\	.	.	.	.	.	.	8dd\	.
8D\J	.	.	.	.	.	.	8b\	di-
!	!	!	!	!	!	!	!LO:LB:g=original	!
=30	=30	=30	=30	=30	=30	=30	=30	=30
!LO:TX:a:t=P:problem:mixed beam	!	!	!	!	!	!	!	!
.	.	.	.	.	.	.	8qqa/	.
8E\L	.	.	.	.	.	.	16g#X\	-vi-
!	!	!	!	!	!	!	!LO:SIC:l:s=-ti-:v	!
.	.	.	.	.	.	.	16g#\	-ci-
!	!	!	!	!	!	!	!LO:SIC:l:s=-ae:v	!
8AA/J	.	.	.	.	.	.	8a\	-e
8C#/L	.	.	.	.	.	.	4r	.
8AA/J	.	.	.	.	.	.	.	.
=31	=31	=31	=31	=31	=31	=31	=31	=31
!	!	!LO:N:vis=00	!	!LO:N:vis=00	!LO:N:vis=00	!	!	!
8D\L	.	0r	.	0r	0r	.	16ff#\KL	in
.	.	.	.	.	.	.	8.dd\J	.
8D\	.	.	.	.	.	.	.	.
8D\	.	.	.	.	.	.	8aa\	do-
8D\J	.	.	.	.	.	.	8ff#\	-mo
=32	=32	=32	=32	=32	=32	=32	=32	=32
8r	.	.	.	.	.	.	16ee\LL	e-
.	.	.	.	.	.	.	16cc#\JJ	.
.	.	.	.	.	.	.	8qqb/	.
8AA/L	.	.	.	.	.	.	4.a\	-ius
8C#/	.	.	.	.	.	.	.	.
8AA/J	.	.	.	.	.	.	.	.
=33	=33	=33	=33	=33	=33	=33	=33	=33
8D\L	.	.	.	.	.	.	16ff#\KL	et
.	.	.	.	.	.	.	8.dd\J	.
8D\	.	.	.	.	.	.	.	.
8D\	.	.	.	.	.	.	16aa\KL	ius-
.	.	.	.	.	.	.	8.ff#\J	.
8D\J	.	.	.	.	.	.	.	.
=34	=34	=34	=34	=34	=34	=34	=34	=34
8r	.	.	.	.	.	.	16ee\	-ti-
!	!	!	!	!	!	!	!LO:SIC:l:s=-ti-:v	!
.	.	.	.	.	.	.	16cc#\	-ci-
.	.	.	.	.	.	.	8qqb/	.
8AA/L	.	.	.	.	.	.	4.a\	-a
8C#/	.	.	.	.	.	.	.	.
8AA/J	.	.	.	.	.	.	.	.
=35	=35	=35	=35	=35	=35	=35	=35	=35
!	!	!LO:N:vis=00	!	!LO:N:vis=00	!LO:N:vis=00	!	!	!
8r	.	0r	.	0r	0r	.	8dd\	e-
8B\L	.	.	.	.	.	.	8dd\	-ius
!	!	!	!	!	!	!	!LO:LB:g=original	!
8F#\	.	.	.	.	.	.	4dd\	ma-
8G#X\J	.	.	.	.	.	.	.	.
=36	=36	=36	=36	=36	=36	=36	=36	=36
!LO:TX:a:t=P:problem:mixed beam	!	!	!	!	!	!	!	!
8A\L	.	.	.	.	.	.	8cc#\	-net
8AA/	.	.	.	.	.	.	8cc#\	in
!	!	!	!	!	!	!	!LO:SIC:l:s=sae-:v	!
8D/	.	.	.	.	.	.	(8b\L	se-
8F#/J	.	.	.	.	.	.	8a\J	.
!LO:LB:g=original	!	!	!	!	!	!	!	!
=37	=37	=37	=37	=37	=37	=37	=37	=37
8E\L	.	.	.	.	.	.	4g#X\)	.
8D\	.	.	.	.	.	.	.	.
8C#\	.	.	.	.	.	.	8a\	-cu-
8D\J	.	.	.	.	.	.	8b\	-lum
=38	=38	=38	=38	=38	=38	=38	=38	=38
!LO:TX:a:t=P:problem:mixed beam	!	!	!	!	!	!	!LO:SIC:l:s=sae-:v	!
8E\L	.	.	.	.	.	.	4a\	se-
8D\	.	.	.	.	.	.	.	.
8E\	.	.	.	.	.	.	8.b\	.
8EE/J	.	.	.	.	.	.	.	.
.	.	.	.	.	.	.	16b\	-cu-
=39	=39	=39	=39	=39	=39	=39	=39	=39
!	!	!	!	!LO:N:vis=8	!	!	!	!
8AA/L	.	16r	.	16r	8r	.	8a\	-li
.	.	16a\LL	.	16a\LL	.	.	.	.
8C#/	.	16cc#\	.	16cc#\	8c#\	e-	8ee\	ex-
.	.	16ee\JJ	.	16ee\JJ	.	.	.	.
8D/	.	16ff#\LL	.	16ff#\LL	8d\	-xor-	8ff#\	-or-
.	.	16aa\	.	16aa\	.	.	.	.
8E/J	.	16gg#X\	.	16gg#X\	16c#\LL	-tum	16ee\LL	-tum
.	.	16bb\JJ	.	16bb\JJ	16B\JJ	.	16dd\JJ	.
!	!	!	!	!	!LO:LB:g=original	!	!	!
=40	=40	=40	=40	=40	=40	=40	=40	=40
!	!	!LO:TX:a:t=P:problem:mixed beam	!	!LO:TX:a:t=P:problem:mixed beam	!	!	!	!
8AA/L	.	16aa\LL	.	16aa\LL	8A\	est	8cc#\	est
.	.	16a/	.	16a/	.	.	.	.
8C#/	.	16cc#/	.	16cc#/	8c#\	in	8ee\	in
.	.	16ee/JJ	.	16ee/JJ	.	.	.	.
8D/	.	16ff#\LL	.	16ff#\LL	8d\	te-	8ff#\	te-
.	.	16aa\	.	16aa\	.	.	.	.
8E/J	.	16gg#X\	.	16gg#X\	16c#\LL	-ne-	16ee\LL	-ne-
.	.	16bb\JJ	.	16bb\JJ	16B\JJ	.	16dd\JJ	.
!	!	!	!	!LO:LB:g=original	!	!	!LO:LB:g=original	!
=41	=41	=41	=41	=41	=41	=41	=41	=41
!LO:TX:a:t=P:problem:mixed beam	!	!LO:TX:a:t=P:problem:mixed beam	!	!	!	!	!	!
8AA/L	.	16aa\LL	.	16aa\LL	4A\	-bris	4cc#\	-bris
.	.	16a/	.	16a\	.	.	.	.
8A\	.	16cc#/	.	16cc#\	.	.	.	.
.	.	16ee/JJ	.	16ee\JJ	.	.	.	.
8c#\	.	8aa\L	.	8aa\L	8c#\	lu-	8ee\	lu-
8A\J	.	8ee\J	.	8ee\J	8c#\	-men	8ee\	-men
=42	=42	=42	=42	=42	=42	=42	=42	=42
8d\L	.	16ff#\LL	.	16ff#\LL	4d\	rec-	4ff#\	rec-
.	.	16aa\	.	16aa\	.	.	.	.
8B\	.	16gg#X\	.	16gg#X\	.	.	.	.
.	.	16ff#\JJ	.	16ff#\JJ	.	.	.	.
8e\	.	16ee\LL	.	16ee\LL	8c#\L	.	8ee\L	.
.	.	16cc#\	.	16cc#\	.	.	.	.
8E\J	.	16dd\	.	16dd\	8B\J	.	8dd\J	.
.	.	16b\JJ	.	16b\JJ	.	.	.	.
=43	=43	=43	=43	=43	=43	=43	=43	=43
4A\	.	8cc#\L	.	8cc#\L	8A\	-tis	8cc#\	-tis
.	.	8cc#\J	.	8cc#\J	8A#X\	mi-	8cc#\	mi-
8A#X\L	.	8cc#\L	.	8cc#\L	8A#\	-se-	8cc#\	-se-
8F#\J	.	16ff#\L	.	16ff#\L	8c#\	-ri-	16ff#\LL	-ri-
.	.	16ee\JJ	.	16ee\JJ	.	.	16ee\JJ	.
!	!	!LO:LB:g=original	!	!	!	!	!	!
=44	=44	=44	=44	=44	=44	=44	=44	=44
!LO:TX:a:t=P:problem:mixed beam	!	!	!	!	!	!	!	!
8B\L	.	16ddn\LL	.	16ddn\LL	8B\	-cors	8ddn\	-cors
.	.	16b\	.	16b\	.	.	.	.
8BB/	.	16dd\	.	16dd\	8B\	et	8ff#\	et
.	.	16ff#\JJ	.	16ff#\JJ	.	.	.	.
8D/	.	8bb\L	.	8bb\L	8F#/	mi-	8b\	mi-
8E/J	.	8bb\J	.	8bb\J	8G/	-se-	8b\	-se-
=45	=45	=45	=45	=45	=45	=45	=45	=45
8F#\L	.	8aa#X\	.	8aa#X\	4c#\	-ra-	4a#X\	-ra-
8F#\	.	4ee\	.	4ee\	.	.	.	.
8G#X\	.	.	.	.	8A#X\	-tor	8cc#\	-tor
.	.	8qqdd/	.	8qqdd/	.	.	.	.
8A#X\J	.	8cc#\	.	8cc#\	8c#\	et	8ee\	et
!	!	!	!	!	!LO:LB:g=original	!	!	!
=46	=46	=46	=46	=46	=46	=46	=46	=46
!	!	!LO:TX:a:t=P:problem:mixed beam	!	!	!LO:SIC:l:s=ius-:v	!	!	!
8B\L	.	8dd\L	.	8dd\L	4B\	jus-	4dd\	ius-
8D\	.	8bb\	.	8bb\	.	.	.	.
8E\	.	8cc#\	.	8cc#\	4A#X\	.	4cc#\	.
8F#\J	.	8aa#X\J	.	8aa#X\J	.	.	.	.
=47	=47	=47	=47	=47	=47	=47	=47	=47
!	!LO:DY:t=pianis	!	!	!	!	!	!	!
4BB/	pp	4bb\	.	4bb\	8B\	-tus	4b\	-tus
!	!	!	!	!	!LO:SIC:l:s=iu-:v	!	!	!
.	.	.	.	.	8f#\	ju-	.	.
8r	.	4r	.	4r	8B\	-cun-	4r	.
8E\	.	.	.	.	8A#X\	-dus	.	.
!LO:LB:g=original	!	!	!	!	!	!	!LO:LB:g=original	!
=48	=48	=48	=48	=48	=48	=48	=48	=48
!	!	!LO:N:vis=00	!	!LO:N:vis=00	!	!	!LO:N:vis=00	!
8BB/L	.	0r	.	0r	8B\	ho-	0r	.
8D/	.	.	.	.	16F#/	-mo	.	.
.	.	.	.	.	16F#/	qui	.	.
8E/	.	.	.	.	8G#X/	mi-	.	.
!	!	!	!	!	!LO:SIC:s=8A#:v	!	!	!
8C#/J	.	.	.	.	8A/	-se-	.	.
=49	=49	=49	=49	=49	=49	=49	=49	=49
8BB\L	.	.	.	.	16B\LL	-re-	.	.
.	.	.	.	.	16f#\JJ	.	.	.
16E\L	.	.	.	.	16g\	-tur	.	.
16D\JJ	.	.	.	.	16f#,\	et	.	.
!	!	!	!	!	!LO:SIC:l:s=com-:v	!	!	!
8C#\L	.	.	.	.	8.e\	co-	.	.
8F#\J	.	.	.	.	.	.	.	.
.	.	.	.	.	16e\	-mo-	.	.
=50	=50	=50	=50	=50	=50	=50	=50	=50
8BB/L	.	.	.	.	8d\	-dat	.	.
8BB/J	.	.	.	.	8f#\	dis-	.	.
8E\L	.	.	.	.	16e\LL	-po-	.	.
.	.	.	.	.	16d\JJ	.	.	.
8Gn\J	.	.	.	.	16c#\	-net	.	.
.	.	.	.	.	16B\	ser-	.	.
!	!	!	!	!	!LO:LB:g=original	!	!	!
=51	=51	=51	=51	=51	=51	=51	=51	=51
4F#\	.	.	.	.	8A#X/	-mo-	.	.
.	.	.	.	.	8F#/	-nes	.	.
8A#X\L	.	.	.	.	8c#\	su-	.	.
8B\J	.	.	.	.	8d\	-as	.	.
=52	=52	=52	=52	=52	=52	=52	=52	=52
!LO:TX:a:t=P:problem:mixed beam	!	!LO:N:vis=00	!	!LO:N:vis=00	!	!	!LO:N:vis=00	!
8c#\L	.	0r	.	0r	8e\	in	0r	.
8A#X\	.	.	.	.	16d\LL	ju-	.	.
.	.	.	.	.	16c#\JJ	.	.	.
8B\	.	.	.	.	8.d\	-di-	.	.
8BB/J	.	.	.	.	.	.	.	.
.	.	.	.	.	16d\	-ci-	.	.
=53	=53	=53	=53	=53	=53	=53	=53	=53
4E\	.	.	.	.	4c#\	-o	.	.
4r	.	.	.	.	8A#X/	qu-	.	.
.	.	.	.	.	8B/	-ia	.	.
=54	=54	=54	=54	=54	=54	=54	=54	=54
*tremolo	*	*	*	*	*	*	*	*
!LO:N:vis=4	!	!	!	!	!	!	!	!
8F#\L	.	.	.	.	8c#\	in	.	.
8F#\	.	.	.	.	4e\	ae-	.	.
8F#\	.	.	.	.	.	.	.	.
8F#\J	.	.	.	.	8g\	.	.	.
=55	=55	=55	=55	=55	=55	=55	=55	=55
!LO:N:vis=4	!	!	!	!	!	!	!	!
8AA#X/L	.	.	.	.	8g\	-ter-	.	.
8AA#X/	.	.	.	.	4f#\	-num	.	.
8AA#X/	.	.	.	.	.	.	.	.
8AA#X/J	.	.	.	.	8e\	non	.	.
*Xtremolo	*	*	*	*	*	*	*	*
=56	=56	=56	=56	=56	=56	=56	=56	=56
!LO:TX:a:t=P:problem:mixed beam	!	!	!	!	!	!	!LO:N:vis=00	!
8BB\L	.	2r	.	2r	8d\	com-	0r	.
8E\	.	.	.	.	16c#\LL	-mo-	.	.
.	.	.	.	.	16B\JJ	.	.	.
!	!	!	!	!	!LO:LB:g=original	!	!	!
8F#\	.	.	.	.	8.c#\	-ve-	.	.
8FF#/J	.	.	.	.	.	.	.	.
.	.	.	.	.	16c#\	-bi-	.	.
=57	=57	=57	=57	=57	=57	=57	=57	=57
4BB/	.	4r	.	4r	4B\	-tur	.	.
4r	.	8f#/L	.	8a#X/L	4r	.	.	.
.	.	8g#X/J	.	8b/J	.	.	.	.
=58	=58	=58	=58	=58	=58	=58	=58	=58
!	!	!	!	!	!LO:N:vis=00	!	!	!
8F#\L	.	8a#X\	.	8cc#\	0r	.	.	.
8F#\	.	4cc#\	.	4ee\	.	.	.	.
8F#\	.	.	.	.	.	.	.	.
8F#\J	.	[8ee\	.	[8gg\	.	.	.	.
=59	=59	=59	=59	=59	=59	=59	=59	=59
*tremolo	*	*	*	*	*	*	*	*
!LO:N:vis=4	!	!	!	!	!	!	!	!
8AA#X/L	.	8ee\]	.	8gg\]	.	.	.	.
8AA#X/	.	4dd\	.	4ff#\	.	.	.	.
8AA#X/	.	.	.	.	.	.	.	.
8AA#X/J	.	8cc#\	.	8ee\	.	.	.	.
*Xtremolo	*	*	*	*	*	*	*	*
!LO:LB:g=original	!	!	!	!	!	!	!	!
=60	=60	=60	=60	=60	=60	=60	=60	=60
*	*	*	*	*Xtuplet	*	*	*	*
!LO:TX:a:t=P:problem:mixed beam	!	!	!	!LO:TUP:a:problem:klamra łukowa bez numeru	!	!	!	!
8BB\L	.	4b\	.	12dd\L	.	.	2r	.
.	.	.	.	12cc#\	.	.	.	.
8E\	.	.	.	.	.	.	.	.
.	.	.	.	12b\J	.	.	.	.
8F#\	.	4a#X\	.	4cc#t\	.	.	.	.
8FF#/J	.	.	.	.	.	.	.	.
!	!	!	!	!LO:LB:g=original	!	!	!	!
=61	=61	=61	=61	=61	=61	=61	=61	=61
!LO:TX:a:t=+:problem:nad kreską taktową	!	!	!	!	!	!	!	!
4BB/	.	4b\	.	4b\	.	.	4b\	In
8r	.	4r	.	4r	.	.	4dd\	me-
8E#X\	.	.	.	.	.	.	.	.
=62	=62	=62	=62	=62	=62	=62	=62	=62
!	!	!LO:TX:a:t=6	!	!LO:N:vis=00	!LO:N:vis=00	!	!	!
!	!	!LO:N:vis=00	!	!	!	!	!	!
4.F#\	.	0r	.	0r	0r	.	16cc#\LL	-mo-
.	.	.	.	.	.	.	16b\JJ	.
.	.	.	.	.	.	.	16a#X\LL	-ri-
.	.	.	.	.	.	.	16g\JJ	.
.	.	.	.	.	.	.	8f#/	-a
!	!	!	!	!	!	!	!LO:SIC:l:s=ae-:v	!
8F#\	.	.	.	.	.	.	16cc#\LL	e-
.	.	.	.	.	.	.	16dd\JJ	.
=63	=63	=63	=63	=63	=63	=63	=63	=63
8G\L	.	.	.	.	.	.	8ee\	-ter-
8c#\	.	.	.	.	.	.	8ee\	-na
8B\	.	.	.	.	.	.	8dd\	e-
8F#\J	.	.	.	.	.	.	8cc#\	-rit
=64	=64	=64	=64	=64	=64	=64	=64	=64
!	!	!	!	!	!	!	!LO:TX:a:t=P:problem:przednutka bez główki	!
.	.	.	.	.	.	.	8qqee/	.
8B\L	.	.	.	.	.	.	8dd\	ius-
8F#\	.	.	.	.	.	.	8cc#\	-tus
8E\	.	.	.	.	.	.	8gg\	ab
8C#\J	.	.	.	.	.	.	16ff#\LL	au-
.	.	.	.	.	.	.	16ee\JJ	.
=65	=65	=65	=65	=65	=65	=65	=65	=65
8D/L	.	.	.	.	.	.	8ff#\	-di-
!	!	!	!	!	!	!	!LO:SIC:l:s=-ti-:v	!
8BB/	.	.	.	.	.	.	16ee\LL	-ci-
.	.	.	.	.	.	.	16dd\JJ	.
!	!	!	!	!	!	!	!LO:LB:g=original	!
8C#/	.	.	.	.	.	.	8ee\	-o-
8AA#X/J	.	.	.	.	.	.	16dd\LL	-ne
.	.	.	.	.	.	.	16cc#\JJ	.
=66	=66	=66	=66	=66	=66	=66	=66	=66
!	!	!LO:N:vis=0	!	!LO:N:vis=0	!	!	!	!
4BB/	.	1r	.	1r	2r	.	8dd\	ma-
.	.	.	.	.	.	.	8cc#\	-la
8r	.	.	.	.	.	.	8b\	non
8E\	.	.	.	.	.	.	8cc#\	ti-
=67	=67	=67	=67	=67	=67	=67	=67	=67
4F#\	.	.	.	.	2r	.	4b\	-me-
4FF#/	.	.	.	.	.	.	4cc#m\	.
=68	=68	=68	=68	=68	=68	=68	=68	=68
4BB/	.	4r	.	4r	4r	.	4b\	-bit
8r	.	8b\L	.	8b\L	4B\	Pa-	4dd\	Pa-
8BB/	.	8dd\J	.	8bb\J	.	.	.	.
=69	=69	=69	=69	=69	=69	=69	=69	=69
4F#\	.	8dd\L	.	8bb\L	4B\	-ra-	4dd\	-ra-
.	.	16cc#\L	.	16aa#X\L	.	.	.	.
.	.	16ee\JJ	.	16gg\JJ	.	.	.	.
4FF#/	.	16dd\LL	.	16ff#\LL	8A#X\	-tum	8cc#\	-tum
.	.	16cc#\	.	16ee\	.	.	.	.
.	.	16b\	.	16dd\	8A#\	cor	8cc#\	cor
.	.	16a#X\JJ	.	16cc#\JJ	.	.	.	.
!	!	!LO:LB:g=original	!	!	!	!	!	!
=70	=70	=70	=70	=70	=70	=70	=70	=70
!LO:TX:a:t=P:problem:mixed beam	!	!	!	!	!	!	!	!
8BB/L	.	16b\LL	.	16dd\LL	8B\	e-	8dd\	e-
.	.	16cc#\J	.	16cc#\J	.	.	.	.
8B\	.	8dd\J	.	8b\J	8B\	-jus	8dd\	-ius
!	!	!	!	!LO:N:vis=8.	!	!	!	!
8A#X\	.	8.a#X/L	.	8cc#t\L	4A#X\	spe-	4cc#\	spe-
8F#\J	.	.	.	16dd\L	.	.	.	.
.	.	32b/LL	.	16ee\JJ	.	.	.	.
.	.	32cc#/JJJ	.	.	.	.	.	.
=71	=71	=71	=71	=71	=71	=71	=71	=71
8B\L	.	8b\L	.	8dd\L	8B\	-ra-	8dd\	-ra-
8F#\	.	8a#X\J	.	8cc#\J	16A#X\	-re	16cc#\	-re
.	.	.	.	.	16A#\	in	16cc#\	in
!	!	!	!	!	!	!	!LO:LB:g=original	!
8D\	.	8b\L	.	16b\LL	8B\	Do-	8dd\	Do-
.	.	.	.	16dd\	.	.	.	.
8BB\J	.	8dd\J	.	16ff#\	8B\	-mi-	8dd\	-mi-
.	.	.	.	16bb\JJ	.	.	.	.
!LO:LB:g=original	!	!	!	!	!	!	!	!
=72	=72	=72	=72	=72	=72	=72	=72	=72
4F#\	.	4cc#\	.	4aa#X\	4A#X\	-no	4cc#\	-no
8r	.	8dd\L	.	8ff#\L	8d\	Con-	8ff#\	Con-
8D\	.	8ff#\J	.	8ddd\J	8d\	-fir-	8ff#\	-fir-
!	!	!	!	!	!LO:LB:g=original	!	!	!
=73	=73	=73	=73	=73	=73	=73	=73	=73
4A\	.	8ff#\L	.	8ddd\L	8d\	-ma-	8ff#\	-ma-
.	.	16ee\L	.	16ccc#\L	8d\	-tum	8ff#\	-tum
.	.	16gg\JJ	.	16bb\JJ	.	.	.	.
4AA/	.	16ff#\LL	.	16aan\LL	8c#\	eſt	8ee\	est
.	.	16ee\	.	16gg\	.	.	.	.
.	.	16dd\	.	16ff#\	8c#\	cor	8ee\	Cor
.	.	16cc#\JJ	.	16ee\JJ	.	.	.	.
=74	=74	=74	=74	=74	=74	=74	=74	=74
!LO:TX:a:t=P:problem:mixed beam	!	!	!	!	!	!	!	!
8D/L	.	16dd\LL	.	16ff#\LL	8d\	e-	8ff#\	e-
.	.	16ee\J	.	16ee\J	.	.	.	.
8d\	.	8ff#\J	.	8dd\J	8d\	-jus	8ff#\	-jus
!	!	!	!	!LO:N:vis=8.	!	!	!LO:TX:b:t=P:problem:skreślenia tekstu słownego w tt. 75-76	!
8c#\	.	8.cc#\L	.	8ee\L	4c#\	non	4ee\	non
8A\J	.	.	.	16ff#\L	.	.	.	.
.	.	32dd\LL	.	16gg\JJ	.	.	.	.
.	.	32ee\JJJ	.	.	.	.	.	.
=75	=75	=75	=75	=75	=75	=75	=75	=75
!	!	!	!	!	!LO:SIC:l:s=com-:v	!	!LO:SIC:l:s=com-:v	!
8d\L	.	8dd\L	.	8ff#\L	8d\	co-	8ff#\	co-
8A\	.	8cc#\J	.	8ee\J	8c#\	-mo-	8ee\	-mo-
8F#\	.	8dd\L	.	16dd\LL	8d\	-ve-	8ff#\	-ve-
.	.	.	.	16ff#\	.	.	.	.
8D\J	.	8ff#\J	.	16aa\	8d\	-bi-	8ff#\	-bi-
.	.	.	.	16ddd\JJ	.	.	.	.
!	!	!	!	!	!	!	!LO:LB:g=original	!
=76	=76	=76	=76	=76	=76	=76	=76	=76
*tremolo	*	*	*	*	*	*	*	*
*2\right	*	*	*	*	*	*	*	*
8A\L	.	8ee\L	.	8ccc#\L	8c#\	-t(ur)	8ee\	-tur
8A\	.	8ee\J	.	8gg\J	8e\	do-	8gg\	do-
8A\	.	16ee\LL	.	16gg\LL	8e\	-nec	8gg\	-nec
.	.	16dd\	.	16ff#\	.	.	.	.
8A\J	.	16cc#\	.	16ee\	8e\	des-	8gg\	des-
.	.	16b\JJ	.	16dd\JJ	.	.	.	.
!	!	!	!	!LO:LB:g=original	!	!	!	!
=77	=77	=77	=77	=77	=77	=77	=77	=77
8A\L	.	8a\L	.	8cc#\L	8.e\	-pi-	8.gg\	-pi-
8A\	.	8cc#\J	.	8ee\J	.	.	.	.
.	.	.	.	.	16e\	-ci-	16gg\	-ci-
!	!	!	!	!	!LO:SIC:l:s=-at:v	!	!	!
8A\	.	16cc#\LL	.	16ee\LL	4e\	-as	4gg\	-as
.	.	16b\	.	16dd\	.	.	.	.
8A\J	.	16a\	.	16cc#\	.	.	.	.
.	.	16g#X\JJ	.	16b\JJ	.	.	.	.
*Xtremolo	*	*	*	*	*	*	*	*
=78	=78	=78	=78	=78	=78	=78	=78	=78
4A\	.	8a\L	.	16a\LL	8A\	i-	16a\LL	i-
.	.	.	.	16b\	.	.	16b\JJ	.
.	.	16a\L	.	16cc#\	16A\LL	-ni-	16cc#\LL	-ni-
.	.	16b\JJ	.	16dd\JJ	16B\JJ	.	16dd\JJ	.
8r	.	16cc#\LL	.	16ee\LL	16c#\LL	-mi-	16ee\LL	-mi-
.	.	16dd\	.	16ff#\	16d\JJ	.	16ff#\JJ	.
!	!	!	!	!	!LO:LB:g=original	!	!	!
8A\	.	16ee\	.	16gg\	16e\LL	-cos	16gg\LL	-cos
.	.	16cc#\JJ	.	16ee\JJ	16c#\JJ	.	16ee\JJ	.
=79	=79	=79	=79	=79	=79	=79	=79	=79
!LO:TX:a:t=P:problem:mixed beam	!	!	!	!	!	!	!	!
8D\L	.	4dd\	.	8ff#\L	4d\	tu-	4ff#\	tu-
8F#\	.	.	.	16ee\L	.	.	.	.
.	.	.	.	16dd\JJ	.	.	.	.
8A\	.	4cc#t\	.	4ee\	4c#\	.	4ee\	.
8AA/J	.	.	.	.	.	.	.	.
=80	=80	=80	=80	=80	=80	=80	=80	=80
!	!	!LO:TX:a:t=P:problem:mixed beam	!	!LO:TX:a:t=P:problem:mixed beam	!	!	!	!
4D\	.	8dd\L	.	8dd\L	4d\	-os	4dd\	-os
.	.	8d/J	.	8d/	.	.	.	.
8AA/L	.	8a\L	.	8cc#\	4r	.	4r	.
8AA/J	.	8b\J	.	8dd\J	.	.	.	.
=81	=81	=81	=81	=81	=81	=81	=81	=81
*tremolo	*	*	*	*	*	*	*	*
!	!	!	!	!	!LO:N:vis=0	!	!LO:N:vis=0	!
8AA/L	.	8cc#\	.	8ee\	1r	.	1r	.
8AA/	.	4ee\	.	4gg\	.	.	.	.
8AA/	.	.	.	.	.	.	.	.
8AA/J	.	[8gg\	.	[8bb\	.	.	.	.
!	!	!LO:LB:g=original	!	!	!	!	!	!
=82	=82	=82	=82	=82	=82	=82	=82	=82
8AA/L	.	8gg\]	.	8bb\]	.	.	.	.
8AA/	.	4ff#\	.	4aa\	.	.	.	.
8AA/	.	.	.	.	.	.	.	.
8AA/J	.	8ee\	.	8gg\	.	.	.	.
=83	=83	=83	=83	=83	=83	=83	=83	=83
!LO:TX:a:t=P:problem:mixed beam	!	!	!	!	!	!	!	!
8D\L	.	4dd\	.	16ff#\LL	2r	.	2r	.
.	.	.	.	16ee\J	.	.	.	.
8F#\	.	.	.	8dd\J	.	.	.	.
8A\	.	4cc#t\	.	4eeT\	.	.	.	.
8AA/J	.	.	.	.	.	.	.	.
!LO:LB:g=original	!	!	!	!	!	!	!	!
=84	=84	=84	=84	=84	=84	=84	=84	=84
*	*	*	*	*	*	*	*2\right	*
!	!	!LO:TX:a:t=P:problem:mixed beam	!	!LO:TX:a:i:t=piu	!	!	!	!
8D\L	.	8dd\L	.	8dd\L	2F#/	Dis-	2dd\	Dis-
8D\	.	8f#/	.	8a\	.	.	.	.
8D\	.	8f#/	.	8a\	.	.	.	.
8D\J	.	8f#/J	.	8a\J	.	.	.	.
=85	=85	=85	=85	=85	=85	=85	=85	=85
8D\L	.	8g/L	.	8b\L	8G/	-per-	8b\	-per-
8D\	.	8f#/	.	8a\	8F#/	-sit	8a\	-sit
8D\	.	8f#/	.	8a\	4r	.	4r	.
8D\J	.	8f#/J	.	8a\J	.	.	.	.
!	!	!	!	!	!	!	!LO:LB:g=original	!
=86	=86	=86	=86	=86	=86	=86	=86	=86
8D\L	.	8f#/L	.	8a\L	4F#/	de-	4dd\	De-
8D\	.	8f#/	.	8a\	.	.	.	.
8D\	.	8f#/	.	8a\	8F#/	-dit	8dd\	-dit
8D\J	.	8f#/J	.	8a\J	8F#/	pau-	8a\	pau-
=87	=87	=87	=87	=87	=87	=87	=87	=87
8AA/L	.	8e/L	.	8g/L	16E/	-pe-	16g\	-pe-
.	.	.	.	.	16E/	-ri-	16g\	-ri-
8D/	.	8d/	.	8f#/	8D/	-bus	8f#/	-bus
8D/	.	8d/	.	8f#/	4r	.	4r	.
8D/J	.	8d/J	.	8f#/J	.	.	.	.
=88	=88	=88	=88	=88	=88	=88	=88	=88
!	!	!	!	!	!	!	!LO:SIC:l:s=jus-:v	!
8D\L	.	8a\L	.	8ccn\L	8A\	jus-	8ccn\	sus-
8D\	.	8a\	.	8cc\	8A\	-ti-	8cc\	-ti-
!	!	!	!	!	!	!	!LO:SIC:l:s=-ti-:v	!
8D\	.	8a\	.	8cc\	8A\	-ti-	8cc\	-ci-
8D\J	.	8a\J	.	8cc\J	8A\	-a	8cc\	-a
*Xtremolo	*	*	*	*	*	*	*	*
!	!	!	!	!	!LO:PB:g=original	!	!	!
=89	=89	=89	=89	=89	=89	=89	=89	=89
!	!	!	!	!LO:SIC:s=4ccn:v	!	!	!LO:SIC:s=8ccn:v	!
4D\	.	4a/	.	4cc#\	8A/	e-	8cc#\	e-
.	.	.	.	.	8cn\	-jus	8ff#\	-ius
4r	.	4r	.	4r	8c\L	ma-	8ff#\L	ma-
.	.	.	.	.	8f#\J	.	8aa\J	.
!	!	!	!	!LO:PB:g=original	!	!	!	!
=90	=90	=90	=90	=90	=90	=90	=90	=90
8r	.	8r	.	8r	8f#\	-net	8aa\	-net
!	!	!	!	!LO:SIC:s=4ccn:v	!	!	!	!
8D\L	.	4a/	.	4cc#\	8A/	in	8ccn\	in
!	!	!	!	!	!	!	!LO:N:vis=16	!
!	!	!	!	!	!	!	!LO:SIC:l:s=sae-:v	!
8F#\	.	.	.	.	8A/	sae-	8cc\	se-
8G\J	.	8g/	.	8b\	16G/	-cu-	16b\	-cu-
.	.	.	.	.	16G/	-lum	16b\	-lum
!	!	!	!	!	!	!	!LO:LB:g=original	!
=91	=91	=91	=91	=91	=91	=91	=91	=91
!	!	!LO:TX:a:t=P:problem:2 skreślone takty	!	!	!	!	!LO:SIC:l:s=sae-:v	!
8d\L	.	8g/L	.	8b\L	16G/	sae-	16b\	se-
.	.	.	.	.	16F#/	-cu-	16a\	-cu-
8A\	.	8f#/	.	8a\	8F#/	-li	8a\	-li
8F#\	.	8f#/	.	8a\	4r	.	4r	.
8D\J	.	8f#/J	.	8a\J	.	.	.	.
=92	=92	=92	=92	=92	=92	=92	=92	=92
4GG/	.	8r	.	8r	16G\LL	Cor-	16b\LL	cor-
.	.	.	.	.	16A\JJ	.	16ccn\JJ	.
.	.	8b\L	.	4dd\	4B\	-nu	4dd\	.
!LO:TX:a:t=bis	!	!	!	!	!	!	!	!
4r	.	8a\	.	.	.	.	.	.
.	.	8g\J	.	16ccn\LL	16A\LL	.	16cc\LL	-nu
.	.	.	.	16b\JJ	16G\JJ	.	16b\JJ	.
=93	=93	=93	=93	=93	=93	=93	=93	=93
4D\	.	8f#/L	.	8a\L	16F#/LL	e-	16a\LL	e-
.	.	.	.	.	16G/JJ	.	16b\JJ	.
!	!	!	!	!LO:SIC:s=8ccn:v	!	!	!LO:SIC:s=4.ccn:v	!
.	.	8a/	.	8cc#\	4.A/	-jus	4.cc#\	-ius
!	!	!	!	!LO:SIC:s=8ccn:v	!	!	!	!
4r	.	8a/	.	8cc#\	.	.	.	.
!	!	!	!	!LO:SIC:s=8ccn:v	!	!	!	!
.	.	8a/J	.	8cc#\J	.	.	.	.
!	!	!LO:LB:g=original	!	!	!	!	!	!
=94	=94	=94	=94	=94	=94	=94	=94	=94
!LO:TX:a:t=P:problem:powtórzenie tt. 93-94 oznaczone znakami repetycji, adnotacja "bis"	!	!	!	!	!	!	!	!
4GG/yy	.	8r	.	8r	16B\LL	ex-	16g\LL	ex-
.	.	.	.	.	16cn\JJ	.	16a\JJ	.
.	.	4dd\	.	4b\	4d\	-al-	4b\	.
4ryy	.	.	.	.	.	.	.	.
!	!	!LO:SIC:s=8ccn:v	!	!	!	!	!	!
.	.	16cc#\LL	.	16a\LL	16c\LL	.	16a\LL	-al-
.	.	16b\JJ	.	16g\JJ	16B\JJ	.	16g\JJ	.
=95	=95	=95	=95	=95	=95	=95	=95	=95
4D\yy	.	8a\L	.	8f#/L	16A\	-ta-	16f#/	-ta-
.	.	.	.	.	16B\	-bi-	16g/	-bi-
!	!	!	!	!	!LO:SIC:s=4.cn:v	!	!	!
.	.	8ccn\	.	8a/	4.c#\	-tur	4.a\	-tur
4ryy	.	8cc\	.	8a/	.	.	.	.
.	.	8cc\J	.	8a/J	.	.	.	.
!	!	!	!	!	!LO:LB:g=original	!	!	!
=96	=96	=96	=96	=96	=96	=96	=96	=96
4GG/	.	4b\	.	4g/	4B\	e-	4gg\	ex-
4D\	.	4r	.	4r	4A\	-xal-	4ff#\	-al-
=97	=97	=97	=97	=97	=97	=97	=97	=97
!	!	!LO:N:vis=0	!	!LO:N:vis=0	!	!	!	!
4GG/	.	1r	.	1r	8B\	-ta-	8gg\	-ta-
!	!	!	!	!	!LO:SIC:s=8cn:v	!	!	!
.	.	.	.	.	8c#\	-bi-	8ee\	-bi-
!	!	!	!	!	!	!	!LO:LB:g=original	!
8r	.	.	.	.	8B\	-tur	8dd\	-tur
!LO:SIC:s=8Cn:v	!	!	!	!	!	!	!LO:SIC:s=8ccn:v	!
8C#/	.	.	.	.	8A\	in	8cc#\	in
=98	=98	=98	=98	=98	=98	=98	=98	=98
!LO:TX:a:t=P:problem:mixed beam	!	!	!	!	!	!	!	!
8D\L	.	.	.	.	4G/	Glo-	4b\	glo-
8D\	.	.	.	.	.	.	.	.
8DD/	.	.	.	.	4F#/	-ri-	4a\	-ri-
8DD/J	.	.	.	.	.	.	.	.
!LO:LB:g=original	!	!	!	!	!	!	!	!
=99	=99	=99	=99	=99	=99	=99	=99	=99
4GG/	.	16g/LL	.	16b\LL	4G/	-a	4g\	-a
.	.	16a/JJ	.	16ccn\JJ	.	.	.	.
.	.	4b/	.	4dd\	.	.	.	.
4r	.	.	.	.	4r	.	4r	.
.	.	16a/LL	.	16cc\LL	.	.	.	.
.	.	16g/JJ	.	16b\JJ	.	.	.	.
=100	=100	=100	=100	=100	=100	=100	=100	=100
!	!	!	!	!	!LO:N:vis=00	!	!LO:N:vis=00	!
4D\	.	16f#/LL	.	16a\LL	0r	.	0r	.
.	.	16g/JJ	.	16b\JJ	.	.	.	.
!	!	!	!	!LO:SIC:s=4.ccn:v	!	!	!	!
.	.	4.a/	.	4.cc#\	.	.	.	.
4r	.	.	.	.	.	.	.	.
=101	=101	=101	=101	=101	=101	=101	=101	=101
4GG/	.	16b\LL	.	16g/LL	.	.	.	.
.	.	16ccn\JJ	.	16a/JJ	.	.	.	.
.	.	4dd\	.	4b/	.	.	.	.
4r	.	.	.	.	.	.	.	.
.	.	16cc\LL	.	16a/LL	.	.	.	.
.	.	16b\JJ	.	16g/JJ	.	.	.	.
=102	=102	=102	=102	=102	=102	=102	=102	=102
4D\	.	16a\LL	.	16f#/LL	.	.	.	.
.	.	16b\JJ	.	16g/JJ	.	.	.	.
.	.	4.ccn\	.	4.a/	.	.	.	.
4r	.	.	.	.	.	.	.	.
=103	=103	=103	=103	=103	=103	=103	=103	=103
4GG/	.	4b/	.	4gg\	.	.	.	.
4D\	.	4a/	.	4ff#t\	.	.	.	.
=104	=104	=104	=104	=104	=104	=104	=104	=104
!	!	!	!	!	!LO:N:vis=0	!	!LO:N:vis=0	!
4GG/	.	8b\L	.	8gg\L	1r	.	1r	.
.	.	8ccn\	.	8ee\	.	.	.	.
8r	.	8b\	.	8dd\	.	.	.	.
8C#/	.	8a\J	.	8ccn\J	.	.	.	.
=105	=105	=105	=105	=105	=105	=105	=105	=105
!LO:TX:a:t=P:problem:mixed beam	!	!	!	!	!	!	!	!
8D\L	.	4g/	.	4b/	.	.	.	.
8D\	.	.	.	.	.	.	.	.
8DD/	.	4f#/	.	4aT/	.	.	.	.
8DD/J	.	.	.	.	.	.	.	.
!	!	!	!	!LO:LB:g=original	!	!	!	!
=106	=106	=106	=106	=106	=106	=106	=106	=106
4GG/	.	8g/L	.	8g/L	2r	.	2r	.
.	.	16a/L	.	16a/L	.	.	.	.
.	.	16b/JJ	.	16b/JJ	.	.	.	.
4r	.	16ccn\LL	.	16ccn\LL	.	.	.	.
.	.	16dd\	.	16dd\	.	.	.	.
.	.	16ee\	.	16ee\	.	.	.	.
.	.	16ff#\JJ	.	16ff#\JJ	.	.	.	.
=107	=107	=107	=107	=107	=107	=107	=107	=107
!	!	!	!	!	!LO:SIC:l:s=Pec-:v	!	!LO:SIC:l:s=pec-:v	!
8G\L	.	8gg\L	.	8gg\L	8B\	Pe-	8dd\	pe-
8A\	.	16b\L	.	8dd\	8B\	-ca-	8dd\	-ca-
!	!	!LO:SIC:s=16ccn:v	!	!	!	!	!	!
.	.	16cc#\JJ	.	.	.	.	.	.
8B\	.	8dd\L	.	8b\	8B\	-tor	8dd\	-tor
8G\J	.	8b\J	.	8g\J	8B\	vi-	8dd\	vi-
!	!	!LO:LB:g=original	!	!	!	!	!	!
=108	=108	=108	=108	=108	=108	=108	=108	=108
!LO:SIC:s=8cn:v	!	!	!	!	!LO:SIC:s=8cn:v	!	!	!
8c#\L	.	8g\L	.	8ee\	8c#\	-de-	8ee\	-de-
16G\L	.	16b\L	.	4dd\	4.B\	-bit	4.dd\	-bit
!	!	!LO:SIC:s=16ccn:v	!	!	!	!	!	!
16A\JJ	.	16cc#\JJ	.	.	.	.	.	.
8B\L	.	8dd\L	.	.	.	.	.	.
!	!	!LO:SIC:s=8ccn:v	!	!	!	!	!	!
8A\J	.	8cc#\J	.	16ee\LL	.	.	.	.
.	.	.	.	16ff#\JJ	.	.	.	.
=109	=109	=109	=109	=109	=109	=109	=109	=109
8G\L	.	8b\L	.	8gg\L	4B\	et	4dd\	et
!	!	!LO:SIC:s=8ccn:v	!	!	!	!	!	!
8A\	.	8cc#\	.	8dd\	.	.	.	.
8B\	.	8dd\	.	8b\	8B\	i-	8dd\	i-
8G\J	.	8b\J	.	8g\J	8B\	-ras-	8dd\	-ras-
=110	=110	=110	=110	=110	=110	=110	=110	=110
!	!	!	!	!	!	!	!LO:SIC:s=8ccn:v	!
8D\L	.	8a/L	.	8ccn\L	8A/	-ce-	8cc#\	-ce-
8G\	.	8g/	.	8b\J	8G/	-tur	8b\	-tur
!	!	!	!	!	!	!	!LO:LB:g=original	!
8F#\	.	8a/	.	8r	8r	.	8r	.
8D\J	.	8f#/J	.	8a/	8F#/	den-	8a\	den-
!	!	!	!	!	!LO:LB:g=original	!	!	!
=111	=111	=111	=111	=111	=111	=111	=111	=111
*tremolo	*	*	*	*	*	*	*	*
8G\L	.	8b\L	.	24b\LL	4G/	.	4b\	.
.	.	.	.	24a\	.	.	.	.
.	.	.	.	24g\J	.	.	.	.
8G\	.	8b\	.	8.ee\J	.	.	.	.
8G\	.	8b\	.	.	8B\	-ti-	8ee\	-ti-
.	.	.	.	16ee\LL	.	.	.	.
8G\J	.	8b\J	.	16ff#\	8B\	-bus	8ee\	-bus
.	.	.	.	16gg\JJ	.	.	.	.
=112	=112	=112	=112	=112	=112	=112	=112	=112
8A\L	.	8cc#X\L	.	24cc#\LL	8A\	su-	8cc#\	su-
.	.	.	.	24b\	.	.	.	.
.	.	.	.	24a\J	.	.	.	.
8A\	.	8cc#\	.	8.ff#\J	8A\	-is	8cc#\	-is
8A\	.	8cc#\	.	.	8c#\	fre-	8ff#\	fre-
.	.	.	.	16ff#\LL	.	.	.	.
8A\J	.	8cc#\J	.	16gg\	8c#\	-met	8ff#\	-met
.	.	.	.	16aa\JJ	.	.	.	.
!LO:LB:g=original	!	!	!	!	!	!	!	!
=113	=113	=113	=113	=113	=113	=113	=113	=113
8B\L	.	8dd\L	.	24dd\LL	4B\	et	4dd\	et
.	.	.	.	24cc#\	.	.	.	.
.	.	.	.	24b\J	.	.	.	.
8B\	.	8dd\	.	8.gg\J	.	.	.	.
8B\	.	8dd\	.	.	4d\	ta-	4gg\	ta-
.	.	.	.	16gg\LL	.	.	.	.
8B\J	.	8dd\J	.	16aa\	.	.	.	.
.	.	.	.	16bb\JJ	.	.	.	.
=114	=114	=114	=114	=114	=114	=114	=114	=114
.	.	8qqdd/	.	8qqdd/	.	.	.	.
8A\L	.	16cc#\LL	.	16cc#\LL	8c#\	-bes-	8ee\	-bes-
.	.	16b\	.	16b\	.	.	.	.
8A\	.	16a\	.	16a\	8c#\	-cet	8ee\	-cet
.	.	16b\JJ	.	16b\JJ	.	.	.	.
8A\	.	16cc#\LL	.	16cc#\LL	8c#\	de-	8ee\	de-
.	.	16dd\	.	16dd\	.	.	.	.
8A\J	.	16ee\	.	16ee\	8c#\	-si-	8ee\	-si-
.	.	16ff#\JJ	.	16ff#\JJ	.	.	.	.
*Xtremolo	*	*	*	*	*	*	*	*
=115	=115	=115	=115	=115	=115	=115	=115	=115
8A\L	.	16gg\LL	.	16gg\LL	8c#\	-de-	8ee\	-de-
.	.	16ff#\	.	16ff#\	.	.	.	.
8A\	.	16ee\	.	16ee\	16c#\	-ri-	16ee\	-ri-
.	.	16ff#\JJ	.	16ff#\JJ	16c#\	-um	16ee\	-um
!	!	!	!	!	!	!	!LO:PB:g=original	!
!	!	!	!	!	!	!	!LO:SIC:l:s=pec-:v	!
8G\	.	16gg\LL	.	16gg\LL	8c#\	pec-	8ee\	pe-
.	.	16aa\	.	16aa\	.	.	.	.
8G\J	.	16bb\	.	16bb\	8c#\	-ca-	8ee\	-ca-
.	.	16ccc#\JJ	.	16ccc#\JJ	.	.	.	.
!	!	!	!	!LO:LB:g=original	!	!	!	!
=116	=116	=116	=116	=116	=116	=116	=116	=116
8F#\L	.	8ddd\L	.	8ddd\L	4d\	-to-	4ff#\	-to-
8E\	.	16ccc#\L	.	16ccc#\L	.	.	.	.
.	.	16bb\JJ	.	16bb\JJ	.	.	.	.
8F#\	.	16aa\LL	.	16aa\LL	8d\	-rum	8ff#\	-rum
.	.	16gg\	.	16gg\	.	.	.	.
!LO:TX:a:t=24X	!	!	!	!	!	!	!	!
8G\J	.	16ff#\	.	16ff#\	8e\	pe-	8gg\	pe-
.	.	16ee\JJ	.	16ee\JJ	.	.	.	.
=117	=117	=117	=117	=117	=117	=117	=117	=117
!LO:TX:a:t=P:problem:mixed beam	!	!	!	!	!	!	!	!
8A\L	.	4dd\	.	4dd\	4d\	-ri-	(4ff#\	-ri-
8A\	.	.	.	.	.	.	.	.
8AA/	.	4eeT\	.	4eeT\	4c#\	.	4ee\)	.
8AA/J	.	.	.	.	.	.	.	.
!	!	!	!	!	!LO:LB:g=original	!	!	!
=118	=118	=118	=118	=118	=118	=118	=118	=118
8D\L	.	8dd\L	.	8dd\L	4d\	-bit	4dd\	-bit
8E\	.	16cc#\L	.	16cc#\L	.	.	.	.
.	.	16b\JJ	.	16b\JJ	.	.	.	.
8F#\	.	16a/LL	.	16a/LL	4r	.	4r	.
.	.	16g/	.	16g/	.	.	.	.
8G\J	.	16f#/	.	16f#/	.	.	.	.
.	.	16e/JJ	.	16e/JJ	.	.	.	.
!	!	!LO:LB:g=original	!	!	!	!	!	!
=119	=119	=119	=119	=119	=119	=119	=119	=119
!	!	!	!	!	!	!	!LO:N:vis=00	!
2A\	.	4d/	.	4d/	4r	.	0r	.
.	.	4eT/	.	4eT/	8r	.	.	.
.	.	.	.	.	8A/	Glo-	.	.
=120	=120	=120	=120	=120	=120	=120	=120	=120
!LO:TX:a:t=Solo	!	!	!	!	!	!	!	!
8d\L	.	4d/	.	4d/	4d\	.	.	.
8A\	.	.	.	.	.	.	.	.
8F#\	.	4r	.	4r	4f#\	-ri-	.	.
8D\J	.	.	.	.	.	.	.	.
=121	=121	=121	=121	=121	=121	=121	=121	=121
!	!	!LO:N:vis=00	!	!LO:N:vis=00	!	!	!	!
8A\L	.	0r	.	0r	4e\	-a	.	.
8B\	.	.	.	.	.	.	.	.
8c#\	.	.	.	.	8r	.	.	.
8A\J	.	.	.	.	8g\	Glo-	.	.
=122	=122	=122	=122	=122	=122	=122	=122	=122
8d\L	.	.	.	.	8f#\L	.	.	.
8d\	.	.	.	.	16e\L	.	.	.
.	.	.	.	.	16f#\JJ	.	.	.
8B\	.	.	.	.	8g\	-ri-	.	.
8G\J	.	.	.	.	8e\	-a	.	.
=123	=123	=123	=123	=123	=123	=123	=123	=123
.	.	.	.	.	8qqd/	.	.	.
!	!	!	!	!	!	!	!LO:N:vis=00	!
8A\L	.	.	.	.	8c#\	Pa-	0r	.
8D\	.	.	.	.	8d\	-tri	.	.
8F#\	.	.	.	.	4r	.	.	.
8D\J	.	.	.	.	.	.	.	.
=124	=124	=124	=124	=124	=124	=124	=124	=124
*tremolo	*	*	*	*	*	*	*	*
8G\L	.	.	.	.	(16B\KL	Glo-	.	.
.	.	.	.	.	8.G\J)	.	.	.
8G\	.	.	.	.	.	.	.	.
8G\	.	.	.	.	(16d\KL	.	.	.
.	.	.	.	.	8.B\J)	.	.	.
8G\J	.	.	.	.	.	.	.	.
*Xtremolo	*	*	*	*	*	*	*	*
=125	=125	=125	=125	=125	=125	=125	=125	=125
!	!	!LO:N:vis=00	!	!LO:N:vis=00	!	!	!	!
8r	.	0r	.	0r	16A/	.	.	.
.	.	.	.	.	16F#/	-ri-	.	.
.	.	.	.	.	8qqE/	.	.	.
!	!	!	!	!	!LO:N:vis=4	!	!	!
8D\L	.	.	.	.	4.D/	-a	.	.
8F#\	.	.	.	.	.	.	.	.
8D\J	.	.	.	.	.	.	.	.
!	!	!	!	!	!LO:LB:g=original	!	!	!
=126	=126	=126	=126	=126	=126	=126	=126	=126
*tremolo	*	*	*	*	*	*	*	*
8G\L	.	.	.	.	(16B\KL	Fi-	.	.
.	.	.	.	.	8.G\J)	.	.	.
8G\	.	.	.	.	.	.	.	.
8G\	.	.	.	.	16d\KL	.	.	.
.	.	.	.	.	8.B\J	.	.	.
8G\J	.	.	.	.	.	.	.	.
*Xtremolo	*	*	*	*	*	*	*	*
!LO:LB:g=original	!	!	!	!	!	!	!	!
=127	=127	=127	=127	=127	=127	=127	=127	=127
!	!	!	!	!	!	!	!LO:N:vis=00	!
8r	.	.	.	.	16A/	.	0r	.
.	.	.	.	.	16F#/	-li-	.	.
8D\L	.	.	.	.	4.D/	-o	.	.
8F#\	.	.	.	.	.	.	.	.
8D\J	.	.	.	.	.	.	.	.
=128	=128	=128	=128	=128	=128	=128	=128	=128
4A\	.	.	.	.	8.A\L	et	.	.
.	.	.	.	.	16B\Jk	.	.	.
16A\LL	.	.	.	.	16c#\LL	spi-	.	.
16B\	.	.	.	.	16d\JJ	.	.	.
16c#\	.	.	.	.	16e\LL	.	.	.
16d\JJ	.	.	.	.	16f#\JJ	.	.	.
=129	=129	=129	=129	=129	=129	=129	=129	=129
!	!	!LO:N:vis=0	!	!LO:N:vis=0	!	!	!	!
8e\L	.	1r	.	1r	8g\L	-ri-	.	.
8c#\	.	.	.	.	16f#\L	.	.	.
.	.	.	.	.	16e\JJ	.	.	.
8d\	.	.	.	.	8f#\	-tu-	.	.
8F#\J	.	.	.	.	8d\	-i	.	.
=130	=130	=130	=130	=130	=130	=130	=130	=130
!LO:TX:a:t=P:problem:mixed beam	!	!	!	!	!	!	!	!
8G\L	.	.	.	.	(4B\	san-	.	.
8E\	.	.	.	.	.	.	.	.
!	!	!	!	!	!LO:TX:a:t=P:problem:łuk nad nutą	!	!	!
8A\	.	.	.	.	4c#\)	.	.	.
8AA/J	.	.	.	.	.	.	.	.
=131	=131	=131	=131	=131	=131	=131	=131	=131
!LO:TX:a:t=P:problem:nadmiarowy takt w vl I i II	!	!LO:TX:a:t=P:problem:nadmiarowy takt	!	!LO:TX:a:t=P:problem:nadmiarowy takt	!LO:TX:a:t=P:problem:nadmiarowy takt w vl I i II	!	!LO:TX:a:t=P:problem:nadmiarowy takt w vl I i II	!
2ryy	.	2r	.	2r	2ryy	.	2ryy	.
=132	=132	=132	=132	=132	=132	=132	=132	=132
!LO:TX:a:t=P:problem:mixed beam	!	!	!	!	!	!	!	!
16D/LL	.	4r	.	4r	4d\	-cto	4r	.
16d\	.	.	.	.	.	.	.	.
16c#\	.	.	.	.	.	.	.	.
16B\JJ	.	.	.	.	.	.	.	.
16A\LL	.	8r	.	8r	8r	.	8r	.
16G\	.	.	.	.	.	.	.	.
16F#\	.	8a/	.	8a/	8A/	si-	8a\	si-
16E\JJ	.	.	.	.	.	.	.	.
=133	=133	=133	=133	=133	=133	=133	=133	=133
8D\L	.	4dd\	.	4dd\	8F#/	-cut	8dd\	.
8A\	.	.	.	.	8F#/	.	8dd\	-cut
8F#\	.	4ff#\	.	4ff#\	8A\L	e-	4ff#\	e-
8D\J	.	.	.	.	8B\J	.	.	.
=134	=134	=134	=134	=134	=134	=134	=134	=134
8A\L	.	4ee\	.	4ee\	4c#\	-rat	4ee\	-rat
8B\	.	.	.	.	.	.	.	.
8c#\	.	8r	.	8r	8r	.	8r	.
!	!	!	!	!	!LO:LB:g=original	!	!	!
8A\J	.	8gg\	.	8gg\	8c#\	in	8gg\	in
!	!	!	!	!	!	!	!LO:LB:g=original	!
=135	=135	=135	=135	=135	=135	=135	=135	=135
8d\L	.	8.ff#t\L	.	8.ff#t\L	4A\	.	8ff#\L	.
8d\	.	.	.	.	.	.	16ee\L	.
.	.	(32ee\LL	.	32ee\LL	.	.	16ff#\JJ	.
.	.	32ff#\JJJ)	.	32ff#\JJJ	.	.	.	.
8B\	.	8gg\L	.	8gg\L	8B\	.	8gg\	.
8G\J	.	8ee\J	.	8ee\J	8B\	prin-	8ee\	prin-
=136	=136	=136	=136	=136	=136	=136	=136	=136
8A\L	.	8cc#\L	.	8cc#\L	16E/	-ci-	16cc#\	-ci-
.	.	.	.	.	16E/	-pi-	16cc#\	-pi-
8D\	.	8dd\J	.	8dd\J	8F#/	-o	8dd\	-o
8F#\	.	16d/LL	.	16d/LL	4r	.	4r	.
.	.	32e/L	.	32e/L	.	.	.	.
.	.	32f#/	.	32f#/	.	.	.	.
8E\J	.	32g/	.	32g/	.	.	.	.
.	.	32a/	.	32a/	.	.	.	.
.	.	32b/	.	32b/	.	.	.	.
.	.	32cc#/JJJ	.	32cc#/JJJ	.	.	.	.
!	!	!	!	!LO:LB:g=original	!	!	!	!
=137	=137	=137	=137	=137	=137	=137	=137	=137
!	!	!LO:TX:a:t=P:problem:mixed beam	!	!	!	!	!	!
8D\L	.	8dd\L	.	8dd\	4F#/	et	8dd\	et
8D\	.	8f#/	.	4.ccn\	.	.	4cc#\	nunc
8E\	.	8g/	.	.	8G/	nunc	.	.
8F#\J	.	8a/J	.	.	8A/	et	8cc#\	et
=138	=138	=138	=138	=138	=138	=138	=138	=138
8G\L	.	8b\L	.	16b\LL	8B\L	sem-	8b\L	sem-
.	.	.	.	16g\	.	.	.	.
8A\	.	8cc#\	.	16a\	8c#\J	.	8a\J	.
.	.	.	.	16f#\JJ	.	.	.	.
8B\	.	8dd\	.	4g/	8d\L	-per	4g\	-per
8G\J	.	8b\J	.	.	8B\J	.	.	.
!LO:LB:g=original	!	!	!	!	!	!	!	!
=139	=139	=139	=139	=139	=139	=139	=139	=139
8E\L	.	8g#X/L	.	8ee\	4G#X/	et	8ee\	et
8E\	.	8g#/	.	4.dd\	.	.	4.dd\	in
8F#\	.	8a/	.	.	8A\L	in	.	.
8G#X\J	.	8b/J	.	.	8B\J	.	.	.
=140	=140	=140	=140	=140	=140	=140	=140	=140
!	!	!	!	!	!	!	!LO:SIC:l:s=sae-:v	!
8A\L	.	8cc#\L	.	16cc#X\LL	8c#\	sae-	8cc#\	se-
.	.	.	.	16a\	.	.	.	.
8B\	.	8dd\	.	16b\	8d\	-cu-	8b\	-cu-
.	.	.	.	16g#X\JJ	.	.	.	.
8c#\	.	8ee\	.	16a\LL	8e\L	-la	4a\	-la
.	.	.	.	32b\L	.	.	.	.
.	.	.	.	32cc#\	.	.	.	.
8A\J	.	8cc#\J	.	32dd\	8c#\J	.	.	.
.	.	.	.	32ee\	.	.	.	.
.	.	.	.	32ff#\	.	.	.	.
.	.	.	.	32ggn\JJJ	.	.	.	.
!	!	!	!	!	!	!	!LO:LB:g=original	!
=141	=141	=141	=141	=141	=141	=141	=141	=141
!	!	!	!	!	!	!	!LO:SIC:l:s=sae-:v	!
8AA/L	.	8cc#\L	.	8aa\	8c#\	sae-	8ee\	se-
8AA/	.	8cc#\	.	4gg\	8c#\	-cu-	8ee\	-cu-
!	!	!	!	!	!LO:LB:g=original	!	!	!
8BB/	.	8dd\	.	.	8c#\	-lo-	8ee\	-lo-
8C#/J	.	8ee\J	.	16ff#\LL	8c#\	-rum	8ee\	-rum
.	.	.	.	16ee\JJ	.	.	.	.
=142	=142	=142	=142	=142	=142	=142	=142	=142
!	!	!	!LO:DY:a	!	!	!	!	!
8D\L	.	16dd\LL	f	16ff#\LL	4d\	a-	4ff#\	a-
.	.	16ff#\	.	16aa\	.	.	.	.
8E\	.	16gg\	.	16bb\	.	.	.	.
.	.	16ee\JJ	.	16ccc#\JJ	.	.	.	.
8F#\	.	8ff#\L	.	8ddd\L	8d\L	.	8ff#\L	-men
8G\J	.	8ee\J	.	8gg\J	8e\J	.	8gg\J	.
=143	=143	=143	=143	=143	=143	=143	=143	=143
4A\	.	4dd\	.	4ff#\	4d\	.	4ff#\	a-
4AA/	.	4cc#\	.	4ee\	4c#\	.	4ee\	.
=144	=144	=144	=144	=144	=144	=144	=144	=144
4D\	.	4dd\	.	4dd\	4d\	-men	4ff#\	-men
4r	.	4r	.	4r	4r	.	4r	.
==;;	==	==	==	==	==;;	==	==;;	==
*-	*-	*-	*-	*-	*-	*-	*-	*-
!!!system-decoration: [g1][g2]s5
!!!RDF**kern: > = above
!!!RDF**kern: < = below
!!!AIN: 1 empty 1 tenor 2 violn 1 vox
!!!ENC: Marta Lawrence
!!!END: 2020-09-09
!!!ENC: Andrzej Kubiczek
!!!END: 2020-05-15
